weblate_web/static/img/icon-call.svg

<svg width="54" height="54" version="1.1" viewBox="-1 -1 56 56" xmlns="http://www.w3.org/2000/svg"><path d="m36 27h6a15 15 0 0 0-15-15v6a9 9 0 0 1 9 9m12 0h6c0-15-12.09-27-27-27v6c11.58 0 21 9.39 21 21m3 10.5c-3.75 0-7.35-0.6-10.71-1.71-1.05-0.33-2.22-0.09-3.06 0.75l-6.6 6.6c-8.49-4.32-15.45-11.28-19.77-19.77l6.6-6.6c0.84-0.84 1.08-2.01 0.75-3.06-1.11-3.36-1.71-6.96-1.71-10.71a3 3 0 0 0-3-3h-10.5a3 3 0 0 0-3 3 51 51 0 0 0 51 51 3 3 0 0 0 3-3v-10.5a3 3 0 0 0-3-3z" fill="#1fa385"/></svg>

<svg xmlns="http://www.w3.org/2000/svg" xmlns:svg="http://www.w3.org/2000/svg" id="svg4" width="54" height="54" version="1.1" viewBox="-1 -1 56 56"><metadata id="metadata10"/><path id="path2" fill="#1fa385" fill-opacity="1" stroke-width="1" d="m 36,27 h 6 A 15,15 0 0 0 27,12 v 6 a 9,9 0 0 1 9,9 m 12,0 h 6 C 54,12 41.91,0 27,0 v 6 c 11.58,0 21,9.39 21,21 m 3,10.5 c -3.75,0 -7.35,-0.6 -10.71,-1.71 -1.05,-0.33 -2.22,-0.09 -3.06,0.75 l -6.6,6.6 C 22.14,38.82 15.18,31.86 10.86,23.37 l 6.6,-6.6 C 18.3,15.93 18.54,14.76 18.21,13.71 17.1,10.35 16.5,6.75 16.5,3 a 3,3 0 0 0 -3,-3 H 3 A 3,3 0 0 0 0,3 51,51 0 0 0 51,54 3,3 0 0 0 54,51 V 40.5 a 3,3 0 0 0 -3,-3 z"/></svg>
